X: 1
T:The 25th K.O.S.B.s
M:C|
L:1/8
Q:80
C:P/M J. Balloch
S:March
K:HP
|: {g}A3/4d/4|
{g}f2{g}e3/4g/4{a}f/4a3/4|
{fg}fd{gdc}d{gf}g|  !
{aBG}B2{a}g3/4f/4{g}e3/4d/4|
{gcd}c{g}e{A}e{g}A3/4d/4|
{g}f2{g}e3/4g/4{a}f/4a3/4|  !
{fg}fd{gdc}d{gf}g|
{aBG}B3/2d/2{g}c/4e3/4{g}A3/4a/4|
{fg}fd{gdc}d:| |:  !
{gf}g|
{ag}a{AGAG}A{a}g3/4f/4{g}e3/4d/4|
{gcd}c{d}B{GdGe}B{g}e/2f/2|  !
{gf}g3/2B/2{g}G3/4{d}B/4{g}e3/4d/4|
{gcd}c{g}e{A}e{g}f/2g/2|
{ag}a{AGAG}A{a}g3/4f/4{g}e3/4d/4|  !
{gcd}c{d}B{GdGe}B{gf}g|
{a}A3/4{d}c/4{g}e3/4a/4g3/4e/4{g}c/4{d}A3/4|
{Gdc}d2{gdc}d:| |:  !
{g}A3/4d/4|
{g}f3/4e/4{g}f/4a3/4A3/4d/4{g}f/4a3/4|
{fg}fd{gdc}d{gf}g|  !
{a}B/4{d}G3/4{g}B/4d3/4{a}g3/4f/4{g}e3/4d/4|
{gcd}c{g}e{A}e{g}A3/4d/4|
{g}f3/4e/4{g}f/4a3/4A3/4d/4{g}f/4a3/4|  !
{fg}fd{gdc}d{gf}g|
{a}B/4{d}G3/4{g}B/4d3/4{g}c/4e3/4{g}A3/4a/4|
{fg}fd{gdc}d:| |:  !
{g}f3/4g/4|
a3/4g/4a3/4d/4{g}f3/4d/4a3/4d/4|
{gcd}c{d}B{GdGe}B{g}e3/4f/4|  !
g3/4{a}f/4g3/4B/4{g}G3/4{d}B/4{g}e3/4d/4|
{gcd}c{g}e{A}e{g}f3/4g/4|
a3/4g/4a3/4d/4{g}f3/4d/4a3/4d/4|  !
{gcd}c{d}B{GdGe}B{gf}g|
{a}A3/4{d}B/4{g}e3/4a/4g3/4e/4{g}c/4{d}A3/4|
{Gdc}d2{gdc}d:|  !
